flaticon/business/graph-3.svg

<svg xmlns="http://www.w3.org/2000/svg" width="32" height="32" viewBox="0 0 24 24">
    <path d="M23.601562 22.199219L23.601562 6.601562 18.800781 6.601562 18.800781 22.199219 17.601562 22.199219 17.601562 9.800781 12.800781 9.800781 12.800781 22.199219 11.601562 22.199219 11.601562 13 6.800781 13 6.800781 22.199219 5.601562 22.199219 5.601562 16.601562.800781 16.601562.800781 22.199219.398438 22.199219C.179688 22.199219 0 22.378906 0 22.601562 0 22.820312.179688 23 .398438 23L23.601562 23C23.820312 23 24 22.820312 24 22.601562 24 22.378906 23.820312 22.199219 23.601562 22.199219zM1.601562 22.199219L1.601562 17.398438 4.800781 17.398438 4.800781 22.199219zM7.601562 22.199219L7.601562 13.800781 10.800781 13.800781 10.800781 22.199219zM13.601562 22.199219L13.601562 10.601562 16.800781 10.601562 16.800781 22.199219zM19.601562 22.199219L19.601562 7.398438 22.800781 7.398438 22.800781 22.199219zM3.210938 11.132812C3.28125 11.132812 3.347656 11.113281 3.410156 11.078125L17.917969 2.703125 17.011719 4.699219C16.917969 4.898438 17.007812 5.136719 17.210938 5.226562 17.261719 5.253906 17.320312 5.265625 17.375 5.265625 17.527344 5.265625 17.671875 5.175781 17.738281 5.03125L19.164062 1.898438C19.167969 1.886719 19.167969 1.875 19.171875 1.867188 19.179688 1.84375 19.183594 1.824219 19.1875 1.800781 19.191406 1.792969 19.199219 1.78125 19.199219 1.769531 19.199219 1.765625 19.195312 1.761719 19.195312 1.757812 19.199219 1.742188 19.195312 1.726562 19.195312 1.710938 19.195312 1.691406 19.191406 1.667969 19.1875 1.648438 19.183594 1.632812 19.183594 1.617188 19.175781 1.601562 19.171875 1.585938 19.164062 1.574219 19.15625 1.5625 19.152344 1.550781 19.152344 1.542969 19.144531 1.53125 19.140625 1.523438 19.132812 1.515625 19.125 1.507812 19.117188 1.496094 19.109375 1.480469 19.101562 1.472656 19.089844 1.457031 19.078125 1.449219 19.0625 1.441406 19.046875 1.425781 19.03125 1.410156 19.011719 1.398438 19 1.390625 18.988281 1.382812 18.976562 1.375 18.972656 1.375 18.96875 1.371094 18.964844 1.367188 18.953125 1.363281 18.945312 1.363281 18.933594 1.359375 18.910156 1.351562 18.890625 1.347656 18.867188 1.34375 18.855469 1.339844 18.847656 1.335938 18.839844 1.335938L15.414062 1.003906C15.191406.980469 14.996094 1.140625 14.976562 1.359375 14.953125 1.582031 15.117188 1.777344 15.335938 1.796875L17.519531 2.007812 3.011719 10.386719C2.820312 10.496094 2.753906 10.742188 2.863281 10.933594 2.9375 11.058594 3.074219 11.132812 3.210938 11.132812zM3.210938 11.132812"/>
</svg>

<svg xmlns="http://www.w3.org/2000/svg" width="32" height="32" viewBox="0 0 24 24">
    <path d="M23.602 22.2V6.601H18.8v15.597h-1.2V9.801h-4.8v12.398h-1.2V13h-4.8v9.2H5.6v-5.598h-4.8v5.597H.398a.401.401 0 0 0 0 .801h23.204a.4.4 0 0 0 0-.8zm-22 0v-4.802H4.8V22.2zm6 0v-8.4H10.8v8.4zm6 0V10.601H16.8v11.597zm6 0V7.397H22.8V22.2zm0 0M3.21 11.133c.071 0 .138-.02.2-.055l14.508-8.375-.906 1.996a.394.394 0 0 0 .199.528c.05.027.11.039.164.039.152 0 .297-.09.363-.235l1.426-3.133c.004-.011.004-.023.008-.03a.409.409 0 0 0 .015-.067c.004-.008.012-.02.012-.031 0-.004-.004-.008-.004-.012.004-.016 0-.031 0-.047a.342.342 0 0 0-.008-.063c-.003-.015-.003-.03-.011-.046-.004-.016-.012-.028-.02-.04-.004-.011-.004-.019-.011-.03-.004-.009-.012-.016-.02-.024-.008-.012-.016-.028-.023-.035a.1.1 0 0 0-.04-.032c-.015-.015-.03-.03-.05-.043l-.035-.023c-.004 0-.008-.004-.012-.008-.012-.004-.02-.004-.031-.008a.409.409 0 0 0-.067-.015c-.012-.004-.02-.008-.027-.008l-3.426-.332a.394.394 0 0 0-.437.355.397.397 0 0 0 .359.438l2.184.21-14.508 8.38a.402.402 0 0 0-.149.547c.075.125.211.199.348.199zm0 0"/>
</svg>
